white/salt.svg

<!-- Generated by IcoMoon.io -->
<svg version="1.1" xmlns="http://www.w3.org/2000/svg" width="32" height="32" viewBox="0 0 32 32">
<title>salt</title>
<path fill="#fff" d="M16 32c-8.837 0-16-7.163-16-16s7.163-16 16-16 16 7.163 16 16-7.163 16-16 16zM16.5 5l-9.5 20h19l-9.5-20zM16.5 10.445l5.804 12.214h-11.608l5.804-12.214z"></path>
</svg>

<svg xmlns="http://www.w3.org/2000/svg" width="32" height="32"><path fill="#FFF" d="M16 32C7.163 32 0 24.837 0 16S7.163 0 16 0s16 7.163 16 16-7.163 16-16 16zm.5-27L7 25h19L16.5 5zm0 5.445l5.804 12.214H10.696L16.5 10.445z"/></svg>
